img/0-2.svg

<svg width="83" height="48" viewBox="0 0 83 48" fill="none" xmlns="http://www.w3.org/2000/svg">
<rect width="83" height="48" fill="#FBFBFB"/>
<path d="M52.2036 16.8591V19.4393H49.3445V16.8591C49.3445 16.4686 49.4189 16.1013 49.5676 15.7573C49.7164 15.404 49.921 15.1018 50.1813 14.8508C50.4416 14.5904 50.7438 14.3859 51.0879 14.2371C51.4412 14.079 51.8131 14 52.2036 14H61.2552C61.6457 14 62.013 14.079 62.357 14.2371C62.7104 14.3859 63.0125 14.5904 63.2636 14.8508C63.5239 15.1018 63.7285 15.404 63.8773 15.7573C64.0353 16.1013 64.1144 16.4686 64.1144 16.8591V20.5132C64.1144 20.9038 64.0772 21.2524 64.0028 21.5593C63.9284 21.8661 63.8075 22.145 63.6402 22.3961C63.4821 22.6378 63.2775 22.8563 63.0265 23.0516C62.7754 23.2469 62.4686 23.4328 62.106 23.6095L52.2036 28.2538V31.1409H61.6178V28.5746H64.477V34H49.3445V28.742C49.3445 28.3515 49.3817 28.0028 49.4561 27.696C49.5397 27.3891 49.6606 27.1148 49.8187 26.8731C49.9767 26.6313 50.1813 26.4128 50.4323 26.2176C50.6927 26.013 50.9949 25.8271 51.3389 25.6597L61.2552 21.0014V16.8591H52.2036Z" fill="black"/>
<path d="M40.5857 29.8299H44.7558V34H40.5857V29.8299Z" fill="black"/>
<path d="M35.7183 31.1409C35.7183 31.5314 35.6439 31.9033 35.4951 32.2566C35.3463 32.6007 35.1418 32.9028 34.8814 33.1632C34.6211 33.4235 34.3143 33.6281 33.9609 33.7768C33.6169 33.9256 33.2496 34 32.8591 34H22.8591C22.4686 34 22.0967 33.9256 21.7434 33.7768C21.3993 33.6281 21.0972 33.4235 20.8368 33.1632C20.5765 32.9028 20.3719 32.6007 20.2232 32.2566C20.0744 31.9033 20 31.5314 20 31.1409V16.8591C20 16.4686 20.0744 16.1013 20.2232 15.7573C20.3719 15.404 20.5765 15.1018 20.8368 14.8508C21.0972 14.5904 21.3993 14.3859 21.7434 14.2371C22.0967 14.079 22.4686 14 22.8591 14H32.8591C33.2496 14 33.6169 14.079 33.9609 14.2371C34.3143 14.3859 34.6211 14.5904 34.8814 14.8508C35.1418 15.1018 35.3463 15.404 35.4951 15.7573C35.6439 16.1013 35.7183 16.4686 35.7183 16.8591V31.1409ZM22.8591 16.8591V31.1409H32.8591V16.8591H22.8591Z" fill="black"/>
<path fill-rule="evenodd" clip-rule="evenodd" d="M35.779 17.1178L23.8253 33.3748L21.5618 31.7105L33.5155 15.4534L35.779 17.1178Z" fill="black"/>
</svg>

<?xml version="1.0" encoding="UTF-8"?>
<svg id="Layer_1" xmlns="http://www.w3.org/2000/svg" version="1.1" viewBox="0 0 83 48">
  <!-- Generator: Adobe Illustrator 29.5.1, SVG Export Plug-In . SVG Version: 2.1.0 Build 141)  -->
  <defs>
    <style>
      .st0 {
        fill-rule: evenodd;
      }

      .st0, .st1 {
        fill: #121212;
      }

      .st2 {
        fill: #f7f7f7;
      }
    </style>
  </defs>
  <rect class="st2" y="0" width="83" height="48"/>
  <g>
    <path class="st1" d="M52.2,16.86v2.58h-2.86v-2.58c0-.39.07-.76.22-1.1.15-.35.35-.66.61-.91.26-.26.56-.46.91-.61.35-.16.73-.24,1.12-.24h9.05c.39,0,.76.08,1.1.24.35.15.66.35.91.61.26.25.46.55.61.91.16.34.24.71.24,1.1v3.65c0,.39-.04.74-.11,1.05-.07.31-.2.59-.36.84-.16.24-.36.46-.61.66-.25.2-.56.38-.92.56l-9.9,4.64v2.89h9.41v-2.57h2.86v5.43h-15.13v-5.26c0-.39.04-.74.11-1.05.08-.31.2-.58.36-.82.16-.24.36-.46.61-.66.26-.2.56-.39.91-.56l9.92-4.66v-4.14h-9.05Z"/>
    <path class="st1" d="M40.59,29.83h4.17v4.17h-4.17v-4.17Z"/>
    <path class="st1" d="M35.72,31.14c0,.39-.07.76-.22,1.12-.15.34-.35.65-.61.91s-.57.46-.92.61c-.34.15-.71.22-1.1.22h-10c-.39,0-.76-.07-1.12-.22-.34-.15-.65-.35-.91-.61-.26-.26-.46-.56-.61-.91-.15-.35-.22-.73-.22-1.12v-14.28c0-.39.07-.76.22-1.1.15-.35.35-.66.61-.91.26-.26.56-.46.91-.61.35-.16.73-.24,1.12-.24h10c.39,0,.76.08,1.1.24.35.15.66.35.92.61.26.25.46.55.61.91.15.34.22.71.22,1.1v14.28ZM22.86,16.86v14.28h10v-14.28h-10Z"/>
    <path class="st0" d="M35.78,17.12l-11.95,16.26-2.26-1.66,11.95-16.26,2.26,1.66Z"/>
  </g>
</svg>
